X:12
T:I'll Buy Boots for Maggie
Z:robin.beech@mcgill.ca
S:Victoria Bar Session, Glasgow
R:polka
M:2/4
L:1/8
K:Am
A>B cd | eg2a | ef/e/ dB | AB GB | A>B cd | eg2a | ef/e/ dB |1 BA AB :|2 BA Ad |:
ea ab | c'b ag | fa ab  | c'b ag | ^fa ab | c'b ag | ef/e/ dB | BA Ad :|
